!!!COM: Gaspar van Weerbeke
!!!CDT: ~1450-~1517
!!!OPR: In honorem sancti spiritus
!!!OTL: Loquebantur variis linguis
!!!OMV: 5
!!!AGN: Motet
!!!SCT: Gas0303e
!!!SCA: Gas0303e
!!!voices: 4
**kern	**text	**kern	**text	**kern	**text	**kern	**text
*part4	*part4	*part3	*part3	*part2	*part2	*part1	*part1
*staff4	*staff4	*staff3	*staff3	*staff2	*staff2	*staff1	*staff1
*I"Bassus	*	*I"Tenor	*	*I"Altus	*	*I"Superius	*
*I'B	*	*I'T	*	*I'A	*	*I'S	*
*clefF4	*	*clefGv2	*	*clefGv2	*	*clefG2	*
*k[]	*	*k[]	*	*k[]	*	*k[]	*
*M2/2	*	*M2/2	*	*M2/2	*	*M2/2	*
*met(C|)	*	*met(C|)	*	*met(C|)	*	*met(C|)	*
=1	=1	=1	=1	=1	=1	=1	=1
[1GG	Lo-	2G	Lo-	1r	.	1r	.
.	.	8GL	.	.	.	.	.
.	.	8A	.	.	.	.	.
.	.	8B	.	.	.	.	.
.	.	8cJ	.	.	.	.	.
=2	=2	=2	=2	=2	=2	=2	=2
1GG]	.	2.B	.	1r	.	1r	.
.	.	4G	-que-	.	.	.	.
=3	=3	=3	=3	=3	=3	=3	=3
1D	-que-	4.B	-ban-	1r	.	1r	.
.	.	8c	.	.	.	.	.
.	.	4d	.	.	.	.	.
.	.	8cL	.	.	.	.	.
.	.	8BJ	.	.	.	.	.
=4	=4	=4	=4	=4	=4	=4	=4
[1F	-ban-	2A	.	1r	.	1r	.
*	*	*	*edit	*	*	*	*
.	.	2D	-tur,	.	.	.	.
=5	=5	=5	=5	=5	=5	=5	=5
1F]	.	4r	.	1r	.	1r	.
.	.	4.d	lo-	.	.	.	.
.	.	8cL	.	.	.	.	.
.	.	8B	.	.	.	.	.
.	.	8AJ	.	.	.	.	.
=6	=6	=6	=6	=6	=6	=6	=6
*	*edit	*	*	*	*	*	*
4G	-tur,	4B	.	1r	.	1r	.
4D	lo-	8AL	.	.	.	.	.
.	.	8BJ	.	.	.	.	.
2E-j	-que-	8cL	.	.	.	.	.
.	.	8B	.	.	.	.	.
.	.	8A	.	.	.	.	.
.	.	8GJ	.	.	.	.	.
!!LO:LB:g=original
=7	=7	=7	=7	=7	=7	=7	=7
2D	-ban-	4.F	.	1r	.	1r	.
.	.	8G	-que-	.	.	.	.
4C	.	4A	.	.	.	.	.
[4D	.	[4B-i	-ban-	.	.	.	.
=8	=8	=8	=8	=8	=8	=8	=8
4D]	.	4B-]	.	1r	.	1r	.
8CL	.	8AL	.	.	.	.	.
8BB-jJ	.	8GJ	.	.	.	.	.
4C	.	8AL	.	.	.	.	.
.	.	8G	.	.	.	.	.
[4D	.	8F	.	.	.	.	.
.	.	8EJ	.	.	.	.	.
=9	=9	=9	=9	=9	=9	=9	=9
4D]	.	4D	.	1r	.	1r	.
4BB	.	2G	.	.	.	.	.
2AA	.	.	.	.	.	.	.
.	.	4F#i	.	.	.	.	.
=10	=10	=10	=10	=10	=10	=10	=10
*	*Xedit	*	*Xedit	*	*	*	*
1GG	-tur	1G	-tur	1r	.	1r	.
=11	=11	=11	=11	=11	=11	=11	=11
1r	.	1r	.	2.g	va-	[1g	va-
.	.	.	.	[4e	.	.	.
=12	=12	=12	=12	=12	=12	=12	=12
1r	.	1r	.	4e]	.	1g]	.
.	.	.	.	8dL	.	.	.
.	.	.	.	8cJ	.	.	.
.	.	.	.	4B	.	.	.
.	.	.	.	[4c	.	.	.
=13	=13	=13	=13	=13	=13	=13	=13
1r	.	1r	.	4c]	.	1g	-ri-
.	.	.	.	8BL	.	.	.
.	.	.	.	8AJ	.	.	.
.	.	.	.	8GL	-ri-	.	.
.	.	.	.	8A	.	.	.
.	.	.	.	8B	.	.	.
.	.	.	.	8cJ	.	.	.
!!LO:PB:g=original
=14	=14	=14	=14	=14	=14	=14	=14
1r	.	1r	.	2d	-is	[1f	-is
.	.	.	.	4r	.	.	.
.	.	.	.	[4D	lin-	.	.
=15	=15	=15	=15	=15	=15	=15	=15
1r	.	1r	.	8DL]	.	1f]	.
.	.	.	.	8E	.	.	.
.	.	.	.	8F	.	.	.
.	.	.	.	8GJ	.	.	.
.	.	.	.	8AL	.	.	.
.	.	.	.	8B	.	.	.
.	.	.	.	8c	.	.	.
.	.	.	.	8dJ	.	.	.
=16	=16	=16	=16	=16	=16	=16	=16
1r	.	1r	.	4.e	.	4.g	lin-
.	.	.	.	16dLL	.	8f	.
.	.	.	.	16eJJ	.	.	.
.	.	.	.	4f	.	2d	.
.	.	.	.	8eL	.	.	.
.	.	.	.	8dJ	.	.	.
=17	=17	=17	=17	=17	=17	=17	=17
1r	.	1r	.	4e	.	4c	.
.	.	.	.	2d	.	4d	.
.	.	.	.	.	.	2e	-gu-
.	.	.	.	4c#i	.	.	.
=18	=18	=18	=18	=18	=18	=18	=18
1r	.	2D	a-	2.d	.	2d	-is
.	.	8DL	.	.	.	2r	.
.	.	8E	.	.	.	.	.
.	.	8F	-po-	8cL	.	.	.
.	.	8GJ	.	8BJ	.	.	.
=19	=19	=19	=19	=19	=19	=19	=19
1r	.	4A	-sto-	8cL	.	1r	.
.	.	.	.	8B	.	.	.
.	.	2G	.	8A	.	.	.
.	.	.	.	8GJ	.	.	.
.	.	.	.	2A	-gu-	.	.
.	.	4F#i	.	.	.	.	.
!!LO:LB:g=original
=20	=20	=20	=20	=20	=20	=20	=20
1r	.	4G	-li,	2G	-is	2d	a-
.	.	2d	Al-	.	.	.	.
.	.	.	.	2r	.	8dL	.
.	.	.	.	.	.	8e	.
.	.	8cL	-le-	.	.	8f	-po-
.	.	8BJ	.	.	.	8gJ	.
=21	=21	=21	=21	=21	=21	=21	=21
1r	.	8cL	-lu-	1r	.	4a	-sto-
.	.	8B	.	.	.	.	.
.	.	8A	.	.	.	2g	.
.	.	8GJ	.	.	.	.	.
.	.	2A	.	.	.	.	.
.	.	.	.	.	.	4f#j	.
=22	=22	=22	=22	=22	=22	=22	=22
1r	.	2G	-ia,	2d	a-	4g	-li,
*	*	*	*	*	*	*	*edit
.	.	.	.	.	.	2dd	Al-
.	.	2r	.	8dL	.	.	.
.	.	.	.	8e	.	.	.
.	.	.	.	8f	-po-	8ccL	-le-
.	.	.	.	8gJ	.	8bJ	.
=23	=23	=23	=23	=23	=23	=23	=23
1r	.	1r	.	4a	-sto-	8ccL	-lu-
.	.	.	.	.	.	8b	.
.	.	.	.	2g	.	8a	.
.	.	.	.	.	.	8gJ	.
.	.	.	.	.	.	2a	.
.	.	.	.	4f#j	.	.	.
=24	=24	=24	=24	=24	=24	=24	=24
*	*	*	*edit	*	*	*	*
2.G	Al-	2G	a-	2g	-li,	2g	-ia,
.	.	8GL	.	2r	.	2r	.
.	.	8A	.	.	.	.	.
8FL	-le-	8B	.	.	.	.	.
8EJ	.	8cJ	.	.	.	.	.
=25	=25	=25	=25	=25	=25	=25	=25
8FL	-lu-	4d	.	1r	.	1r	.
8E	.	.	.	.	.	.	.
8D	.	2c	-po-	.	.	.	.
8CJ	.	.	.	.	.	.	.
2D	.	.	.	.	.	.	.
.	.	4B	-sto-	.	.	.	.
!!LO:LB:g=original
=26	=26	=26	=26	=26	=26	=26	=26
*lig	*	*	*	*	*	*	*
*	*edit	*	*	*	*	*	*
2C	-ia,	2c	-li	2.g	Al-	1r	.
2E	.	2r	.	.	.	.	.
.	.	.	.	8fL	-le-	.	.
.	.	.	.	8eJ	.	.	.
*Xlig	*	*	*	*	*	*	*
=27	=27	=27	=27	=27	=27	=27	=27
4D	al-	1r	.	8fL	-lu-	1r	.
.	.	.	.	8e	.	.	.
2C	-le-	.	.	8d	.	.	.
.	.	.	.	8cJ	.	.	.
.	.	.	.	2d	.	.	.
4BB	-lu-	.	.	.	.	.	.
=28	=28	=28	=28	=28	=28	=28	=28
*	*Xedit	*	*	*	*	*	*Xedit
1C	-ia,	1r	.	4c	-ia,	2.g	al-
*	*	*	*	*	*edit	*	*
.	.	.	.	2e	al-	.	.
.	.	.	.	8dL	-le-	8fL	-le-
.	.	.	.	8cJ	.	8eJ	.
=29	=29	=29	=29	=29	=29	=29	=29
1r	.	2r	.	8dL	-lu-	8fL	-lu-
.	.	.	.	8c	.	8e	.
.	.	.	.	8B	.	8d	.
.	.	.	.	8AJ	.	8cJ	.
*	*	*	*Xedit	*	*	*	*
.	.	2G	al-	2B	-ia,	2d	-ia,
=30	=30	=30	=30	=30	=30	=30	=30
*	*	*	*	*	*	*	*edit
1r	.	4A	-le-	4.c	al-	8cL	al-
.	.	.	.	.	.	8d	.
.	.	4.c	-lu-	.	.	8e	.
.	.	.	.	8dL	.	8fJ	.
.	.	.	.	8e	.	4g	.
.	.	8BL	.	8dJ	.	.	.
.	.	8A	.	[4f	-le-	[4a	-le-
.	.	8GJ	.	.	.	.	.
=31	=31	=31	=31	=31	=31	=31	=31
1r	.	4F	.	8fL]	.	8aL]	.
.	.	.	.	8eJ	.	8gJ	.
.	.	4A	.	4c	.	2cc	-lu-
.	.	2G	.	2d	-lu-	.	.
.	.	.	.	.	.	4b	.
!!LO:LB:g=original
=32	=32	=32	=32	=32	=32	=32	=32
*	*	*	*edit	*	*	*	*
1r	.	2.A	-ia,	4.c	.	1cc	-ia,
.	.	.	.	8B	.	.	.
.	.	.	.	4A	.	.	.
.	.	[4c	al-	8GL	.	.	.
.	.	.	.	8FJ	.	.	.
=33	=33	=33	=33	=33	=33	=33	=33
*	*	*	*	*	*	*	*Xedit
[1AA	Mag-	8cL]	.	2E	.	1cc	Mag-
.	.	8B	.	.	.	.	.
.	.	8A	.	.	.	.	.
.	.	8GJ	.	.	.	.	.
.	.	4F	.	2A	-ia,	.	.
.	.	[4A	-le-	.	.	.	.
=34	=34	=34	=34	=34	=34	=34	=34
1AA]	.	4A]	.	2r	.	2.cc	-na-
.	.	2G	-lu-	.	.	.	.
*	*	*	*	*	*Xedit	*	*
.	.	.	.	2A	Mag-	.	.
.	.	4F#i	.	.	.	8bL	.
.	.	.	.	.	.	8aJ	.
=35	=35	=35	=35	=35	=35	=35	=35
*lig	*	*	*	*lig	*	*	*
*	*	*	*Xedit	*	*	*	*
1GG	-na-	1G	-ia,	2D	-na-	1b	-li-
.	.	.	.	[2d	.	.	.
=36	=36	=36	=36	=36	=36	=36	=36
1D	.	2r	.	4d]	.	2a	-a
*	*	*	*	*Xlig	*	*	*
.	.	.	.	4e	-li-	.	.
.	.	2F	Mag-	2f	-a	[2dd	de-
*Xlig	*	*	*	*	*	*	*
=37	=37	=37	=37	=37	=37	=37	=37
2GG	-li-	1G	-na-	4d	de-	4dd]	.
.	.	.	.	4g	.	4cc	.
2G	-a	.	.	4.d	.	2b	.
.	.	.	.	8e	.	.	.
=38	=38	=38	=38	=38	=38	=38	=38
2.F	de-	2.A	.	4f	.	2a	.
.	.	.	.	8eL	.	.	.
.	.	.	.	8dJ	.	.	.
.	.	.	.	8cL	.	4.cc	.
.	.	.	.	8B	.	.	.
4G	.	4B	-li-	8A	.	.	.
.	.	.	.	8GJ	.	8b	.
!!LO:PB:g=original
=39	=39	=39	=39	=39	=39	=39	=39
2A	.	2.c	-a	4.F	.	8aL	.
.	.	.	.	.	.	8gJ	.
.	.	.	.	.	.	4.a	.
.	.	.	.	8G	.	.	.
4F	.	.	.	2A	.	.	.
.	.	.	.	.	.	8g	.
4D	.	[4d	de-	.	.	[4f	.
=40	=40	=40	=40	=40	=40	=40	=40
*lig	*	*	*	*	*	*	*
2F	.	8dL]	.	4D	-i,	8fL]	.
.	.	8cJ	.	.	.	8eJ	.
*	*	*	*	*	*edit	*	*
.	.	4A	.	4d	de-	2a	.
2E	.	2B	.	2e	.	.	.
.	.	.	.	.	.	4g#j	.
*Xlig	*	*	*	*	*	*	*
=41	=41	=41	=41	=41	=41	=41	=41
2F	.	2.A	-i,	2c	-i,	1a	-i,
2D	-i,	.	.	2r	.	.	.
.	.	[4F	Al-	.	.	.	.
=42	=42	=42	=42	=42	=42	=42	=42
*	*	*	*	*	*Xedit	*	*
1r	.	4F]	.	4.A	Al-	1r	.
.	.	8EL	.	.	.	.	.
.	.	8DJ	.	8B	.	.	.
.	.	4E	.	4c	.	.	.
.	.	4D	.	4d	.	.	.
=43	=43	=43	=43	=43	=43	=43	=43
1r	.	4.F	.	4A	.	1r	.
.	.	.	.	4.d	-le-	.	.
.	.	8E	.	.	.	.	.
.	.	4G	-le-	.	.	.	.
.	.	.	.	8e	.	.	.
.	.	4F	.	[4f	.	.	.
=44	=44	=44	=44	=44	=44	=44	=44
1r	.	2D	-lu-	4f]	.	1r	.
.	.	.	.	8eL	.	.	.
.	.	.	.	8dJ	.	.	.
.	.	4G	.	8eL	.	.	.
.	.	.	.	8d	.	.	.
.	.	4A	.	8c	.	.	.
.	.	.	.	8BJ	.	.	.
=45	=45	=45	=45	=45	=45	=45	=45
1r	.	4F	.	4A	.	1r	.
.	.	4D	.	2d	-lu-	.	.
.	.	2E	.	.	.	.	.
.	.	.	.	4c#i	.	.	.
!!LO:LB:g=original
=46	=46	=46	=46	=46	=46	=46	=46
*	*	*	*edit	*	*edit	*	*
1r	.	4.D	-ia,	[1d	-ia,	1r	.
.	.	8E	.	.	.	.	.
.	.	4F	.	.	.	.	.
.	.	4G	al-	.	.	.	.
=47	=47	=47	=47	=47	=47	=47	=47
1r	.	4D	.	1d]	.	1r	.
.	.	4.G	-le-	.	.	.	.
.	.	8A	.	.	.	.	.
.	.	[4B	.	.	.	.	.
=48	=48	=48	=48	=48	=48	=48	=48
1r	.	4B]	.	4d	al-	1r	.
.	.	8AL	.	8cL	.	.	.
.	.	8G	.	8BJ	.	.	.
.	.	8A	.	8cL	.	.	.
.	.	8GJ	.	8B	.	.	.
.	.	[4c	.	8A	.	.	.
.	.	.	.	8GJ	.	.	.
=49	=49	=49	=49	=49	=49	=49	=49
1r	.	8cL]	.	4F	.	1r	.
.	.	8B	.	.	.	.	.
.	.	8A	.	4G	.	.	.
.	.	8GJ	.	.	.	.	.
.	.	4.F	.	2A	-le-	.	.
.	.	8D	.	.	.	.	.
=50	=50	=50	=50	=50	=50	=50	=50
1r	.	8GL	.	8GL	.	1r	.
.	.	8FJ	.	8A	.	.	.
.	.	4.G	.	8B	.	.	.
.	.	.	.	8cJ	.	.	.
.	.	.	.	4d	.	.	.
.	.	8FL	.	.	.	.	.
.	.	8G	.	8eL	.	.	.
.	.	8FJ	.	8dJ	.	.	.
=51	=51	=51	=51	=51	=51	=51	=51
1r	.	2G	-lu-	8eL	.	2r	.
.	.	.	.	8dJ	.	.	.
.	.	.	.	2g	-lu-	.	.
.	.	2A	.	.	.	2cc	Pro-
*	*	*	*	*	*Xedit	*	*
.	.	.	.	4f#i	-ia,	.	.
=52	=52	=52	=52	=52	=52	=52	=52
*	*	*	*Xedit	*	*	*	*
1r	.	1G	-ia,	2.g	Pro-	2b	-ut
.	.	.	.	.	.	[2dd	spi-
.	.	.	.	8fL	.	.	.
.	.	.	.	8eJ	.	.	.
!!LO:LB:g=original
=53	=53	=53	=53	=53	=53	=53	=53
1r	.	1r	.	4d	-ut	4dd]	.
.	.	.	.	2f	spi-	8ccL	.
.	.	.	.	.	.	8bJ	.
.	.	.	.	.	.	4a	.
.	.	.	.	8eL	.	[4cc	.
.	.	.	.	8dJ	.	.	.
=54	=54	=54	=54	=54	=54	=54	=54
1r	.	1r	.	4c	.	4cc]	.
.	.	.	.	2e	.	8bL	.
.	.	.	.	.	.	8aJ	.
.	.	.	.	.	.	4g	.
.	.	.	.	8dL	.	[4b	.
.	.	.	.	8cJ	.	.	.
=55	=55	=55	=55	=55	=55	=55	=55
1r	.	1r	.	4B	.	4b]	.
.	.	.	.	2d	.	8aL	.
.	.	.	.	.	.	8gJ	.
.	.	.	.	.	.	4f	.
.	.	.	.	8cL	.	[4a	.
.	.	.	.	8BJ	.	.	.
=56	=56	=56	=56	=56	=56	=56	=56
1r	.	2r	.	4A	.	4a]	.
.	.	.	.	2d	-ri-	8gL	-ri-
.	.	.	.	.	.	8fJ	.
.	.	2A	spi-	.	.	2e	-tus
.	.	.	.	4c	-tus	.	.
=57	=57	=57	=57	=57	=57	=57	=57
1r	.	4B	-ri-	4.d	sanc-	8dL	sanc-
.	.	.	.	.	.	8e	.
.	.	2d	-tus	.	.	8f	.
.	.	.	.	8e	.	8gJ	.
.	.	.	.	4f	.	4a	.
.	.	4G	sanc-	4g	.	4b	.
=58	=58	=58	=58	=58	=58	=58	=58
1r	.	4A	.	4e	.	4cc	.
.	.	4B	.	4d	.	2dd	.
.	.	8GL	.	2g	.	.	.
.	.	8A	.	.	.	.	.
.	.	8B	.	.	.	8ccL	.
.	.	8cJ	.	.	.	8bJ	.
=59	=59	=59	=59	=59	=59	=59	=59
1r	.	4d	.	4f	.	4a	.
.	.	4B	.	2g	.	4g	.
.	.	4c	.	.	.	2a	.
.	.	4d	.	4f#i	.	.	.
!!LO:LB:g=original
=60	=60	=60	=60	=60	=60	=60	=60
*M3/2	*	*M3/2	*	*M3/2	*	*M3/2	*
*met(O/3)	*	*met(O/3)	*	*met(O/3)	*	*met(O/3)	*
!!LO:TX:a:t=[O/3]
1G	da-	1.G	-tus	1g	-tus	1.g	-tus
2G	-bat	.	.	2e	da-	.	.
=61	=61	=61	=61	=61	=61	=61	=61
2.A	e-	1.r	.	1c	-bat	1.r	.
4G	.	.	.	.	.	.	.
2F	.	.	.	2d	e-	.	.
=62	=62	=62	=62	=62	=62	=62	=62
*lig	*	*	*	*	*	*	*
2E	-lo-	1G	da-	2.e	-lo-	1.r	.
2C	.	.	.	.	.	.	.
.	.	.	.	4d	.	.	.
*Xlig	*	*	*	*	*	*	*
2E	.	2G	-bat	2c	.	.	.
=63	=63	=63	=63	=63	=63	=63	=63
*lig	*	*	*	*	*	*	*
*	*edit	*	*	*	*	*	*
2F	-qui,	2.A	e-	2.d	.	1.r	.
1D	.	.	.	.	.	.	.
.	.	4G	.	4A	.	.	.
.	.	2F	.	2B	.	.	.
*Xlig	*	*	*	*	*	*	*
=64	=64	=64	=64	=64	=64	=64	=64
1C	da-	4E	-lo-	1c	-qui,	1g	da-
.	.	4F	.	.	.	.	.
.	.	4G	.	.	.	.	.
.	.	4A	.	.	.	.	.
*	*	*	*	*	*edit	*	*
2BB	-bat	2B	.	2d	da-	2g	-bat
=65	=65	=65	=65	=65	=65	=65	=65
1AA	e-	1c	.	1e	-bat	2.a	e-
.	.	.	.	.	.	4g	.
2BB	.	2d	.	2d	e-	2f	.
=66	=66	=66	=66	=66	=66	=66	=66
4C	-lo-	1c	.	2.g	-lo-	4e	-lo-
4D	.	.	.	.	.	4f	.
4E	.	.	.	.	.	4g	.
4F	.	.	.	4f	.	4a	.
2G	.	2B	.	2d	.	2b	.
=67	=67	=67	=67	=67	=67	=67	=67
2A	.	2A	.	2c	.	2cc	.
4G	.	4d	.	4d	.	4b	.
2F	.	2c	.	2f	.	2a	.
4G	.	4B	.	4d	.	4g	.
=68	=68	=68	=68	=68	=68	=68	=68
*lig	*	*lig	*	*lig	*	*	*
2E	.	2G	.	2c	.	1g	.
1D	.	1A	.	1d	.	.	.
.	.	.	.	.	.	2f#i	.
*Xlig	*	*Xlig	*	*Xlig	*	*	*
!!LO:PB:g=original
=69	=69	=69	=69	=69	=69	=69	=69
*	*Xedit	*	*	*	*	*	*
1E	-qui	1.G	-qui	1B	-qui	1g	-qui,
2C	.	.	.	2c	.	2r	.
=70	=70	=70	=70	=70	=70	=70	=70
*	*	*	*	*	*Xedit	*	*
1AA	.	1.r	.	2.e	il-	1cc	il-
.	.	.	.	4f	.	.	.
2GG	.	.	.	2g	.	2b	.
=71	=71	=71	=71	=71	=71	=71	=71
2r	.	1c	il-	1e	-lis,	2.a	.
2AA	il-	.	.	.	.	.	.
.	.	.	.	.	.	4f	.
*	*	*	*	*	*edit	*	*
2E	.	2B	.	2e	il-	4.g	.
.	.	.	.	.	.	8a	.
=72	=72	=72	=72	=72	=72	=72	=72
2F	.	2.A	.	1c	-lis,	2f	.
2.C	.	.	.	.	.	2.e	.
.	.	4G	.	.	.	.	.
.	.	2A	.	2c	il-	.	.
4AA	.	.	.	.	.	4d	.
=73	=73	=73	=73	=73	=73	=73	=73
*lig	*	*lig	*	*	*	*	*
2D	-lis	2F	-lis	1A	-lis,	1d	.
1AA	.	1E	.	.	.	.	.
.	.	.	.	2A	il-	2c#i	.
*Xlig	*	*Xlig	*	*	*	*	*
=74	=74	=74	=74	=74	=74	=74	=74
1A	Al-	1D	A-	1F	-lis,	1d	-lis
2D	-le-	2d	-le-	2r	.	2r	.
=75	=75	=75	=75	=75	=75	=75	=75
*	*	*col	*	*	*	*	*
2G	-lu-	2B	-lu-	1.r	.	1.r	.
2E	.	2c	.	.	.	.	.
2F	.	[2d	.	.	.	.	.
=76	=76	=76	=76	=76	=76	=76	=76
1G	.	2d]	.	1.r	.	1.r	.
.	.	2B	.	.	.	.	.
2E	.	2c	.	.	.	.	.
*	*	*Xcol	*	*	*	*	*
=77	=77	=77	=77	=77	=77	=77	=77
*lig	*	*	*	*	*	*	*
2F	.	2.d	.	1.r	.	1.r	.
2.G	.	.	.	.	.	.	.
.	.	4c	.	.	.	.	.
.	.	4B	.	.	.	.	.
*Xlig	*	*	*	*	*	*	*
4F	.	4A	.	.	.	.	.
!!LO:LB:g=original
=78	=78	=78	=78	=78	=78	=78	=78
4E	.	4G	.	1.r	.	1.r	.
4D	.	4F	.	.	.	.	.
2C	.	2.A	.	.	.	.	.
2D	.	.	.	.	.	.	.
.	.	4G	.	.	.	.	.
=79	=79	=79	=79	=79	=79	=79	=79
*lig	*	*	*	*	*	*	*
2BB	.	1G	.	1.r	.	1.r	.
1AA	.	.	.	.	.	.	.
*Xlig	*	*	*	*	*	*	*
.	.	2F#i	.	.	.	.	.
=80	=80	=80	=80	=80	=80	=80	=80
*col	*	*	*edit	*	*Xedit	*	*
1GG	-ia,	2.G	-ia,	1d	Al-	1r	.
.	.	4A	.	.	.	.	.
[2G	al-	4B	.	2d	-le-	2dd	Al-
.	.	4c	.	.	.	.	.
=81	=81	=81	=81	=81	=81	=81	=81
*	*	*	*	*	*	*col	*
2G]	.	2d	al-	2g	-lu-	2b	-le-
2A	.	2c	.	4.e	.	2cc	.
.	.	.	.	8f	.	.	.
2G	.	2B	-le-	2g	.	[2dd	.
*Xcol	*	*	*	*	*	*	*
=82	=82	=82	=82	=82	=82	=82	=82
2D	-le-	1d	-lu-	2f	.	2dd]	.
*lig	*	*	*	*	*	*	*
2G	-lu-	.	.	2g	.	2b	.
2A	.	2c	.	4e	.	2cc	.
.	.	.	.	4c	.	.	.
*Xlig	*	*	*	*	*	*Xcol	*
=83	=83	=83	=83	=83	=83	=83	=83
*	*	*lig	*	*	*	*	*
2G	.	2B	.	2g	.	2.dd	-lu-
2D	.	2.d	.	2f	.	.	.
.	.	.	.	.	.	4cc	.
[2G	.	.	.	2g	.	4b	.
*	*	*Xlig	*	*	*	*	*
.	.	4c	.	.	.	4a	.
=84	=84	=84	=84	=84	=84	=84	=84
4G]	.	4B	.	4e	.	4g	.
4A	.	4A	.	4c	.	4f	.
2F	.	2c	.	2f	.	2.a	.
2G	.	2B	.	4d	.	.	.
.	.	.	.	4B	.	4g	.
=85	=85	=85	=85	=85	=85	=85	=85
2E	.	2G	.	2c	.	1g	.
*	*	*lig	*	*	*	*	*
1D	.	1A	.	1d	.	.	.
.	.	.	.	.	.	2f#i	.
=86	=86	=86	=86	=86	=86	=86	=86
*	*	*	*Xedit	*	*	*	*
[1GGl	-ia.	[1Gl	-ia.	[1dl	-ia.	[1gl	-ia.
*	*	*Xlig	*	*	*	*	*
2GG]	.	2G]	.	2d]	.	2g]	.
==	==	==	==	==	==	==	==
*-	*-	*-	*-	*-	*-	*-	*-
!!!system-decoration: [*]
!!!RDF**kern: j = editorial accidental, optional, paren up
!!!RDF**kern: i = editorial accidental
!!!RDF**kern: l = terminal breve
!!!PTL: Gaspar van Weerbeke: Collected Works. III. The Motet Cycles
!!!ISBN: 3-7751-2653-8
!!!PPR: American Institute of Musicology
!!!PC#: Corpus Mensurabilis Musicae 106/III
!!!PDT: 1998
!!!PED: Lindmayr-Brandl, Andrea
!!!YEC: Copyright 1994, Lindmayr-Brandl, Andrea
!!!YEM: CC-BY-NC 4.0 (https://creativecommons.org/licenses/by-nc/4.0/legalcode)
!!!EED: Mair-Gruber, Roland
!!!EEV: 2021/11/25
!!!muse2ps: C^@{COM}^i2I150v90,90,90,120c122z18l2700t130
